svgs/sharp-solid/tricycle.svg

<svg xmlns="http://www.w3.org/2000/svg" viewBox="0 0 512 512"><!--! Font Awesome Pro 6.6.0 by @fontawesome - https://fontawesome.com License - https://fontawesome.com/license (Commercial License) Copyright 2024 Fonticons, Inc. --><path d="M280 32l-24 0 0 48 24 0 88 0 0 21-47.6 40.8c-.8 .7-1.6 1.4-2.3 2.2l-10.9 0c-58.8 0-114 23.9-154.1 64.6L133.6 176l2.4 0 24 0 0-48-24 0-80 0-24 0 0 48 24 0 21.6 0 44 73.4c-1.3 2.2-2.6 4.5-3.9 6.7c-1.9-.1-3.9-.1-5.8-.1C50.1 256 0 306.1 0 368s50.1 112 112 112s112-50.1 112-112c0-42.4-23.6-79.4-58.4-98.4c30.7-48.1 84-77.6 141.6-77.6l12.1 0 11 43.8C286.4 256.1 256 300.5 256 352c0 70.7 57.3 128 128 128s128-57.3 128-128s-57.3-128-128-128c-2.4 0-4.8 .1-7.2 .2l-13.9-55.6 44.7-38.3L416 123l0-11 0-56 0-24-24 0L280 32zm64.2 260l16.5 65.9 46.6-11.6-16.5-65.9c36.6 3.4 65.2 34.2 65.2 71.7c0 39.8-32.2 72-72 72s-72-32.2-72-72c0-25.1 12.8-47.1 32.2-60zM112 312a56 56 0 1 1 0 112 56 56 0 1 1 0-112z"/></svg>

<svg xmlns="http://www.w3.org/2000/svg" viewBox="0 0 512 512"><!--! Font Awesome Pro 6.5.2 by @fontawesome - https://fontawesome.com License - https://fontawesome.com/license (Commercial License) Copyright 2024 Fonticons, Inc. --><path d="M280 32H256V80h24 88v21l-47.6 40.8c-.8 .7-1.6 1.4-2.3 2.2H307.2c-58.8 0-114 23.9-154.1 64.6L133.6 176H136h24V128H136 56 32v48H56 77.6l44 73.4c-1.3 2.2-2.6 4.5-3.9 6.7c-1.9-.1-3.9-.1-5.8-.1C50.1 256 0 306.1 0 368s50.1 112 112 112s112-50.1 112-112c0-42.4-23.6-79.4-58.4-98.4c30.7-48.1 84-77.6 141.6-77.6h12.1l11 43.8C286.4 256.1 256 300.5 256 352c0 70.7 57.3 128 128 128s128-57.3 128-128s-57.3-128-128-128c-2.4 0-4.8 .1-7.2 .2l-13.9-55.6 44.7-38.3L416 123V112 56 32H392 280zm64.2 260l16.5 65.9 46.6-11.6-16.5-65.9c36.6 3.4 65.2 34.2 65.2 71.7c0 39.8-32.2 72-72 72s-72-32.2-72-72c0-25.1 12.8-47.1 32.2-60zM112 312a56 56 0 1 1 0 112 56 56 0 1 1 0-112z"/></svg>
